!!!SOCIAL_FUNCTION:	songs used in the treatment of the sick
!!!PDT:	1922
!!!OTL: No_59_Song_Used_in_Tratment_of_Sick_(h).krn
!!!REG: Southwest
!!!LANG: Non-Tone
!!!LING_GROUP: Uto-Aztecan
**kern
*staff1
*clefF4
*k[f#]
*M2/4
8D\
=1
4.B\
8A\
=2||
*M3/4
4.A\
16E\LL
16D\JJ
4D\
=3
[2A\
8A\L]
16E\L
16D\JJ
=4||
*M2/4
8.A\L
16E\Jk
8.A\L
16E\Jk
=5||
*M3/4
4D\
4.D\
8D\
=6||
*M2/4
4.D\
8D\
=7
4.B\
8A\
=8
4.A\
16E\LL
16D\JJ
=9
2D\
=10
8A\L
8G\J
8A\L
16E\L
16D\JJ
=11
2D\
=12
2D\
==
*-
